X: 36976
T: Shuter's
R: hornpipe
M: 4/4
K: Gmajor
|:"G"G2 G/G/G GABc|dcBA GABG|"Am"A2 A/A/A A2ed|cBAG "D7"FAFD|
"G"G2 G/G/G GABc|dcBA G2B2|"D"dcAd "A7"ege^c|"D"d/d/d fe d4:|
|:"D7"A/A/A A2 A2Bc|dBAG FAFD|"G"d/d/d d2 "D7"d2ef|"Em"gedc "G"BdBG|
"C"e2c/c/c c2ge|"G"d2B/B/B B2g2|"C"ecec "D7"BAGF|"G"G/G/G BA G4:|

